src/lib/packages/icons/src/assets/line/airplay-alt.svg

<svg width="24" height="24" viewBox="0 0 24 24" fill="none" xmlns="http://www.w3.org/2000/svg">
<path d="M14.996 21.75H9.00403C8.33703 21.75 7.73599 21.378 7.43799 20.78C7.13799 20.179 7.20198 19.472 7.60498 18.936L10.6021 14.949C11.2701 14.06 12.731 14.06 13.399 14.949L16.396 18.9351C16.799 19.4711 16.863 20.1781 16.563 20.7791C16.264 21.3781 15.663 21.75 14.996 21.75ZM12 15.75C11.954 15.75 11.866 15.7631 11.801 15.8501L8.80396 19.8369C8.71995 19.9479 8.75303 20.0549 8.78003 20.1089C8.80603 20.1609 8.87 20.249 9.005 20.249H14.9969C15.1319 20.249 15.195 20.1609 15.222 20.1089C15.248 20.0549 15.282 19.9479 15.198 19.8369L12.201 15.8501C12.134 15.7631 12.046 15.75 12 15.75ZM15.653 12.8789C15.717 12.5819 15.75 12.286 15.75 12C15.75 9.932 14.067 8.25 12 8.25C9.933 8.25 8.25 9.932 8.25 12C8.25 12.286 8.28205 12.5819 8.34705 12.8789C8.43505 13.2839 8.83499 13.5419 9.23999 13.4529C9.64399 13.3659 9.90096 12.966 9.81396 12.561C9.77096 12.365 9.75098 12.181 9.75098 11.999C9.75098 10.758 10.761 9.74902 12.001 9.74902C13.241 9.74902 14.251 10.758 14.251 11.999C14.251 12.181 14.23 12.364 14.188 12.561C14.101 12.966 14.358 13.3649 14.762 13.4529C14.816 13.4649 14.869 13.47 14.922 13.47C15.266 13.47 15.577 13.2299 15.653 12.8789ZM17.558 15.8459C18.338 14.7169 18.75 13.387 18.75 12C18.75 8.278 15.722 5.25 12 5.25C8.278 5.25 5.25 8.278 5.25 12C5.25 13.387 5.66202 14.7169 6.44202 15.8459C6.67602 16.1859 7.14196 16.2731 7.48596 16.0371C7.82596 15.8021 7.91203 15.3339 7.67603 14.9939C7.07003 14.1169 6.74902 13.081 6.74902 12C6.74902 9.105 9.10402 6.75 11.999 6.75C14.894 6.75 17.249 9.105 17.249 12C17.249 13.081 16.929 14.1159 16.322 14.9939C16.087 15.3349 16.173 15.8021 16.512 16.0371C16.643 16.1271 16.791 16.1699 16.938 16.1699C17.178 16.1699 17.412 16.0569 17.558 15.8459ZM19.365 18.373C20.903 16.611 21.75 14.348 21.75 12C21.75 6.624 17.376 2.25 12 2.25C6.624 2.25 2.25 6.624 2.25 12C2.25 14.348 3.09701 16.611 4.63501 18.373C4.90701 18.685 5.37997 18.7171 5.69397 18.4451C6.00597 18.1731 6.03899 17.699 5.76599 17.387C4.46599 15.898 3.75 13.985 3.75 12C3.75 7.451 7.451 3.75 12 3.75C16.549 3.75 20.25 7.451 20.25 12C20.25 13.985 19.534 15.898 18.234 17.387C17.962 17.699 17.994 18.1731 18.306 18.4451C18.449 18.5691 18.624 18.6299 18.799 18.6299C19.0089 18.6299 19.217 18.543 19.365 18.373Z" fill="currentColor"/>
</svg>

<svg xmlns="http://www.w3.org/2000/svg" width="24" height="24" fill="none"><path fill="currentColor" d="M14.996 21.75H9.004a1.741 1.741 0 0 1-1.566-.97 1.751 1.751 0 0 1 .167-1.844l2.997-3.987c.668-.889 2.129-.889 2.797 0l2.997 3.986c.403.536.467 1.243.167 1.844-.299.6-.9.971-1.567.971Zm-2.996-6a.244.244 0 0 0-.199.1l-2.997 3.987a.249.249 0 0 0-.024.272c.026.052.09.14.225.14h5.992a.244.244 0 0 0 .225-.14.25.25 0 0 0-.024-.272l-2.997-3.987a.25.25 0 0 0-.201-.1Zm3.653-2.871c.064-.297.097-.593.097-.879A3.755 3.755 0 0 0 12 8.25 3.755 3.755 0 0 0 8.25 12c0 .286.032.582.097.879a.75.75 0 1 0 1.467-.318 2.595 2.595 0 0 1-.063-.562c0-1.241 1.01-2.25 2.25-2.25s2.25 1.009 2.25 2.25c0 .182-.021.365-.063.562a.751.751 0 0 0 .734.909.75.75 0 0 0 .731-.591Zm1.905 2.967A6.733 6.733 0 0 0 18.75 12 6.758 6.758 0 0 0 12 5.25 6.758 6.758 0 0 0 5.25 12c0 1.387.412 2.717 1.192 3.846a.75.75 0 1 0 1.234-.852A5.242 5.242 0 0 1 6.749 12a5.256 5.256 0 0 1 5.25-5.25 5.256 5.256 0 0 1 5.25 5.25c0 1.081-.32 2.116-.927 2.994a.752.752 0 0 0 1.236.852Zm1.807 2.527A9.687 9.687 0 0 0 21.75 12c0-5.376-4.374-9.75-9.75-9.75S2.25 6.624 2.25 12c0 2.348.847 4.611 2.385 6.373a.751.751 0 0 0 1.131-.986A8.187 8.187 0 0 1 3.75 12c0-4.549 3.701-8.25 8.25-8.25 4.549 0 8.25 3.701 8.25 8.25a8.187 8.187 0 0 1-2.016 5.387.75.75 0 1 0 1.131.986Z"/></svg>
